src/lib/packages/icons/src/assets/filled/cloud-share.svg

<svg width="24" height="24" viewBox="0 0 24 24" fill="none" xmlns="http://www.w3.org/2000/svg">
<path d="M22 13C22 15.76 19.76 18 17 18H12.301C12.101 18 12 17.837 12 17.67C12 16.58 11.4799 15.61 10.6599 15C11.4799 14.39 12 13.42 12 12.33C12 10.5 10.4999 9 8.66992 9C7.26992 9 6.05006 9.89002 5.56006 11.15L4.26001 11.8C4.05101 11.896 4 11.669 4 11.5C4 7.91 6.91 5 10.5 5C12.15 5 13.65 5.61 14.79 6.62C15.27 7.05 15.69 7.54003 16.03 8.09003C16.35 8.03003 16.67 8 17 8C19.76 8 22 10.24 22 13ZM8.66699 14.167C9.67799 14.167 10.5 13.344 10.5 12.334C10.5 11.323 9.67799 10.501 8.66699 10.501C7.70799 10.501 6.92812 11.243 6.84912 12.181L4.30493 13.453C4.02293 13.275 3.69101 13.168 3.33301 13.168C2.32201 13.168 1.5 13.991 1.5 15.001C1.5 16.011 2.32201 16.834 3.33301 16.834C3.69101 16.834 4.02193 16.727 4.30493 16.549L6.84912 17.821C6.92812 18.759 7.70799 19.501 8.66699 19.501C9.67799 19.501 10.5 18.678 10.5 17.668C10.5 16.657 9.67799 15.835 8.66699 15.835C8.14999 15.835 7.68507 16.052 7.35107 16.397L5.13794 15.291C5.15294 15.197 5.16699 15.101 5.16699 15.003C5.16699 14.905 5.15294 14.809 5.13794 14.715L7.35107 13.609C7.68507 13.95 8.14999 14.167 8.66699 14.167Z" fill="currentColor"/>
</svg>

<svg xmlns="http://www.w3.org/2000/svg" width="24" height="24" fill="none"><path fill="currentColor" d="M22 13c0 2.76-2.24 5-5 5h-4.699c-.2 0-.301-.163-.301-.33 0-1.09-.52-2.06-1.34-2.67.82-.61 1.34-1.58 1.34-2.67C12 10.5 10.5 9 8.67 9c-1.4 0-2.62.89-3.11 2.15l-1.3.65c-.209.096-.26-.131-.26-.3A6.5 6.5 0 0 1 10.5 5c1.65 0 3.15.61 4.29 1.62.48.43.9.92 1.24 1.47.32-.06.64-.09.97-.09 2.76 0 5 2.24 5 5ZM8.667 14.167a1.835 1.835 0 0 0 1.833-1.833 1.835 1.835 0 0 0-1.833-1.833 1.83 1.83 0 0 0-1.818 1.68l-2.544 1.272a1.815 1.815 0 0 0-.972-.285A1.835 1.835 0 0 0 1.5 15.001c0 1.01.822 1.833 1.833 1.833.358 0 .689-.107.972-.285l2.544 1.272a1.83 1.83 0 0 0 1.818 1.68 1.835 1.835 0 0 0 1.833-1.833 1.835 1.835 0 0 0-1.833-1.833c-.517 0-.982.217-1.316.562l-2.213-1.106c.015-.094.029-.19.029-.288 0-.098-.014-.194-.03-.288l2.214-1.106c.334.341.799.558 1.316.558Z"/></svg>
